material/.icons/material/selection-off.svg

<svg xmlns="http://www.w3.org/2000/svg" viewBox="0 0 24 24"><path d="M.5 3.77L1.78 2.5 21.5 22.22l-1.27 1.28-1.5-1.5H17v-1.73L3.73 7H2V5.27L.5 3.77M4 2h3v2H5.82L3.83 2H4m18 2v3h-2V4h-3V2h3a2 2 0 012 2m-2 13h2v3.17l-2-1.99V17M2 20v-3h2v3h3v2H4a2 2 0 01-2-2m8-18h4v2h-4V2m0 18h4v2h-4v-2m10-10h2v4h-2v-4M2 10h2v4H2v-4z"/></svg>

<?xml version="1.0" encoding="UTF-8"?><!DOCTYPE svg PUBLIC "-//W3C//DTD SVG 1.1//EN" "http://www.w3.org/Graphics/SVG/1.1/DTD/svg11.dtd"><svg xmlns="http://www.w3.org/2000/svg" xmlns:xlink="http://www.w3.org/1999/xlink" version="1.1" id="mdi-selection-off" width="24" height="24" viewBox="0 0 24 24"><path d="M0.5,3.77L1.78,2.5L21.5,22.22L20.23,23.5L18.73,22H17V20.27L3.73,7H2V5.27L0.5,3.77M4,2H7V4H5.82L3.83,2H4M22,4V7H20V4H17V2H20A2,2 0 0,1 22,4M20,17H22V20L22,20.17L20,18.18V17M2,20V17H4V20H7V22H4A2,2 0 0,1 2,20M10,2H14V4H10V2M10,20H14V22H10V20M20,10H22V14H20V10M2,10H4V14H2V10Z" /></svg>
